Obsidian-SemiLight/actions/24s/xml-element-new.svg

<svg viewBox="0 0 24 24" xmlns="http://www.w3.org/2000/svg"><path d="m13.5 4-4 15.753906 1 .246094 4-15.7539062zm-5.2460938 3-3.9746093 4.644531-.2792969.355469.2792969.355469 3.9746093 4.644531.7460938-.708984-3.6640625-4.291016 3.6640625-4.2910156zm7.4921878 0-.746094.7089844 3.664062 4.2910156-1.707031 2h1.355469l1.408203-1.644531.279297-.355469-.279297-.355469zm1.253906 8v2h-2v1h2v2h1v-2h2v-1h-2v-2z" fill="#4d4d4d"/></svg>

<svg xmlns="http://www.w3.org/2000/svg" viewBox="0 0 24 24">
  <defs id="defs3051">
    <style type="text/css" id="current-color-scheme">
      .ColorScheme-Text {
        color:#4d4d4d;
      }
      </style>
  </defs>
 <path style="fill:currentColor;fill-opacity:1;stroke:none" 
     d="M 13.5 4 L 9.5 19.753906 L 10.5 20 L 14.5 4.2460938 L 13.5 4 z M 8.2539062 7 L 4.2792969 11.644531 L 4 12 L 4.2792969 12.355469 L 8.2539062 17 L 9 16.291016 L 5.3359375 12 L 9 7.7089844 L 8.2539062 7 z M 15.746094 7 L 15 7.7089844 L 18.664062 12 L 16.957031 14 L 18.3125 14 L 19.720703 12.355469 L 20 12 L 19.720703 11.644531 L 15.746094 7 z M 17 15 L 17 17 L 15 17 L 15 18 L 17 18 L 17 20 L 18 20 L 18 18 L 20 18 L 20 17 L 18 17 L 18 15 L 17 15 z "
     class="ColorScheme-Text"
     />
</svg>
